X:1
T:James Gibb editions
T:Praise the Lord today we sing - Barnby
%%score [ ( 1 2 ) ( 3 4 ) ]
L:1/8
Q:1/4=126
M:3/4
K:G
V:1 treble nm="Midi_74"
V:2 treble 
V:3 bass nm="Midi_74"
V:4 bass 
V:1
"^Praise the Lord today we sing""^Joseph Barnby\n(1838-96)""^77. 77. D" G4"^with spirit" B2 | %1
 d4 d2 | (e2 d2) c2 | d6 || B4 A2 | G4 G2 | G4 A2 | B6 || G4 B2 | d4 d2 | (e2 d2) ^c2 | d6 || %12
[M:3/4] c4 A2 | (B2 c2) d2 | B4 A2 | G6 || B4 B2 | e4 B2 | G4 F2 | E6 || G4 G2 | B4 B2 | G4 A2 | %23
 B6 || e4 d2 | (c2 B2) c2 | d4 c2 | B6 || c4 d2 | c4 G2 | B6 | A6 | G6 || c6 | B6 |] %35
V:2
 D4 D2 | D4 G2 | G4 G2 | G6 || G4 F2 | G4 D2 | (E2 D2) F2 | G6 || D4 G2 | A4 F2 | (G2 F2) E2 | %11
 F6 ||[M:3/4] E4 D2 | D4 D2 | G4 F2 | G6 || ^D4 D2 | E4 E2 | E4 ^D2 | E6 || E4 E2 | D4 D2 | %22
 E4 E2- | ^D6 || E4 E2 | E4 E2 | D4 D2 | D6 || E4 =F2 | E4 C2 | !>!D6 | F6 | G6 || G6 | G6 |] %35
V:3
 B,4 B,2 | A,4 B,2 | (C2 B,2) A,2 | B,6 || D4 C2 | B,4 G,2 | G,4 C2 | B,6 || B,4 E2 | D4 B,2 | %10
 (B,2 A,2) A,2 | A,6 ||[M:3/4] G,4 A,2 | G,4 G,2 | B,4 C2 | B,6 || A,4 A,2 | G,4 B,2 | B,4 A,2 | %19
 G,6 ||!mf! C4 C2 | B,4 B,2 | B,4!<(! A,2 | (F,4 B,2)!<)! || (B,2 A,2) B,2 | C4 C2 | %26
 (A,2 G,2) A,2 | B,6 || G,4 G,2 | G,4 G,2 | G,6 | !>!C6 | !>!B,6 || E6 | D6 |] %35
V:4
 G,4 G,2 | F,4 G,2 | C,4 E,2 | G,6 || D,4 D,2 | E,4 B,,2 | (C,2 B,,2) A,,2 | G,,6 || G,4 E,2 | %9
 F,4 B,2 | (E,2- A,2) A,2 | D,6 ||[M:3/4] E,4 F,2 | G,4 B,,2 | D,4 D,2 | G,6 || F,4 F,2 | E,4 G,2 | %18
 B,4 B,,2 | E,6 || C,4 C,2 | G,,4 G,,2 | (E,2 D,2) C,2 | (B,,4 B,2) || (^G,2 F,2) G,2 | A,4 A,2 | %26
 (F,2 E,2) F,2 | G,6 || C,4 B,,2 | C,4 E,2 | D,6 | D,6 | G,,6 || C,6 | G,,6 |] %35

